icons/stripe-light.svg

<svg width="256" height="256" viewBox="0 0 256 256" fill="none" xmlns="http://www.w3.org/2000/svg">
<path d="M196 0H60C26.8629 0 0 26.8629 0 60V196C0 229.137 26.8629 256 60 256H196C229.137 256 256 229.137 256 196V60C256 26.8629 229.137 0 196 0Z" fill="#F4F2ED"/>
<path fill-rule="evenodd" clip-rule="evenodd" d="M230 129.075C230 114.497 222.939 102.994 209.443 102.994C195.89 102.994 187.69 114.497 187.69 128.961C187.69 146.101 197.371 154.757 211.265 154.757C218.042 154.757 223.167 153.219 227.039 151.055V139.667C223.167 141.603 218.725 142.799 213.088 142.799C207.564 142.799 202.667 140.862 202.04 134.143H229.886C229.886 133.403 230 130.442 230 129.075ZM201.87 123.665C201.87 117.23 205.799 114.554 209.386 114.554C212.86 114.554 216.561 117.23 216.561 123.665H201.87Z" fill="#635BFF"/>
<path fill-rule="evenodd" clip-rule="evenodd" d="M165.71 102.994C160.129 102.994 156.542 105.614 154.549 107.436L153.809 103.905H141.281V170.303L155.517 167.285L155.574 151.169C157.624 152.65 160.642 154.757 165.653 154.757C175.846 154.757 185.128 146.557 185.128 128.505C185.071 111.992 175.675 102.994 165.71 102.994ZM162.293 142.229C158.934 142.229 156.94 141.033 155.574 139.553L155.517 118.426C156.997 116.775 159.047 115.636 162.293 115.636C167.475 115.636 171.063 121.444 171.063 128.904C171.063 136.535 167.532 142.229 162.293 142.229Z" fill="#635BFF"/>
<path fill-rule="evenodd" clip-rule="evenodd" d="M121.691 99.6347L135.984 96.5597V85L121.691 88.0181V99.6347Z" fill="#635BFF"/>
<path d="M135.984 103.963H121.691V153.789H135.984V103.963Z" fill="#635BFF"/>
<path fill-rule="evenodd" clip-rule="evenodd" d="M106.374 108.176L105.463 103.962H93.1626V153.789H107.399V120.021C110.758 115.636 116.453 116.433 118.218 117.06V103.962C116.396 103.279 109.733 102.026 106.374 108.176Z" fill="#635BFF"/>
<path fill-rule="evenodd" clip-rule="evenodd" d="M77.9011 91.6057L64.0067 94.5668L63.9497 140.179C63.9497 148.607 70.2705 154.814 78.6983 154.814C83.3678 154.814 86.7844 153.96 88.6636 152.935V141.375C86.8414 142.115 77.8442 144.735 77.8442 136.307V116.092H88.6636V103.963H77.8442L77.9011 91.6057Z" fill="#635BFF"/>
<path fill-rule="evenodd" clip-rule="evenodd" d="M39.4069 118.426C39.4069 116.205 41.2292 115.351 44.2472 115.351C48.575 115.351 54.0417 116.661 58.3694 118.996V105.614C53.6431 103.735 48.9736 102.994 44.2472 102.994C32.6875 102.994 25 109.03 25 119.11C25 134.826 46.6389 132.321 46.6389 139.097C46.6389 141.717 44.3611 142.571 41.1722 142.571C36.4458 142.571 30.4097 140.635 25.6264 138.015V151.568C30.9222 153.846 36.275 154.814 41.1722 154.814C53.0167 154.814 61.1597 148.949 61.1597 138.755C61.1028 121.786 39.4069 124.804 39.4069 118.426Z" fill="#635BFF"/>
</svg>

<svg xmlns="http://www.w3.org/2000/svg" width="256" height="256" fill="none"><path fill="#F4F2ED" d="M196 0H60C26.863 0 0 26.863 0 60v136c0 33.137 26.863 60 60 60h136c33.137 0 60-26.863 60-60V60c0-33.137-26.863-60-60-60"/><path fill="#635BFF" fill-rule="evenodd" d="M230 129.075c0-14.578-7.061-26.081-20.557-26.081-13.553 0-21.753 11.503-21.753 25.967 0 17.14 9.681 25.796 23.575 25.796 6.777 0 11.902-1.538 15.774-3.702v-11.388c-3.872 1.936-8.314 3.132-13.951 3.132-5.524 0-10.421-1.937-11.048-8.656h27.846c0-.74.114-3.701.114-5.068m-28.13-5.41c0-6.435 3.929-9.111 7.516-9.111 3.474 0 7.175 2.676 7.175 9.111zm-36.16-20.671c-5.581 0-9.168 2.62-11.161 4.442l-.74-3.531h-12.528v66.398l14.236-3.018.057-16.116c2.05 1.481 5.068 3.588 10.079 3.588 10.193 0 19.475-8.2 19.475-26.252-.057-16.513-9.453-25.511-19.418-25.511m-3.417 39.235c-3.359 0-5.353-1.196-6.719-2.676l-.057-21.127c1.48-1.651 3.53-2.79 6.776-2.79 5.182 0 8.77 5.808 8.77 13.268 0 7.631-3.531 13.325-8.77 13.325m-40.602-42.594 14.293-3.075V85l-14.293 3.018z" clip-rule="evenodd"/><path fill="#635BFF" d="M135.984 103.963h-14.293v49.826h14.293z"/><path fill="#635BFF" fill-rule="evenodd" d="m106.374 108.176-.911-4.214h-12.3v49.827h14.236v-33.768c3.359-4.385 9.054-3.588 10.819-2.961v-13.098c-1.822-.683-8.485-1.936-11.844 4.214m-28.473-16.57-13.894 2.96-.057 45.613c0 8.428 6.32 14.635 14.748 14.635 4.67 0 8.086-.854 9.966-1.879v-11.56c-1.823.74-10.82 3.36-10.82-5.068v-20.215h10.82v-12.129h-10.82zm-38.494 26.82c0-2.221 1.822-3.075 4.84-3.075 4.328 0 9.795 1.31 14.122 3.645v-13.382c-4.726-1.879-9.395-2.62-14.122-2.62-11.56 0-19.247 6.036-19.247 16.116 0 15.716 21.639 13.211 21.639 19.987 0 2.62-2.278 3.474-5.467 3.474-4.726 0-10.762-1.936-15.546-4.556v13.553c5.296 2.278 10.649 3.246 15.546 3.246 11.845 0 19.988-5.865 19.988-16.059-.057-16.969-21.753-13.951-21.753-20.329" clip-rule="evenodd"/></svg>
